X: 9817
T: Denis Murphy's
R: slide
M: 12/8
K: Dmajor
|:A2D FED F2A A2f|~g2e ~f2d ~e2d Bcd|
A2D FED F2A A2f|1 a2f ~e3 d3 dcB:|2 a2f ~e3 d3 d2A||
|:d2e ~f3 gfe ~f3|gfe fed ~e2d B2A|
d2e ~f3 gfe f2g|1 a2f ~e3 d3 d2A:|2 a2f ~e3 d3 d2B||

